X: 15
T:Dr. Gilbert's
M:4/4
L:1/8
F:http://blackrosetheband.googlepages.com/ABCTUNES.ABC May 2009
S:Kevin Burke Live - Track 7
R:reel
K:Em
df|:"A"eBBA B2eB|dBAc BAGF|EB,B,z (3GFE ED|EB,B,A, B,2 A,B,|
DEED EB,B,z|(3GFE ED EFGA|(3Bcd ed Bdgb|afdf efgf:|
eB (3BAB gB (3BBB|defa afdf|g2bg f2af|egfd eB (3BAB|
afdf edBc|(3dcB AF AFDG|(3EFG Ac Bdgb|afdf [B3e3]f|
eB (3BBB gB (3BAB|defa afdf|[d4g4] [d4f4]|[e3e3]f eB (3BAB|
afdf edBc|(3dcB AF AFDG|(3EFG Ac Bdgb|afdf [B2e2] gf|

